X: 3
T: Islay Rant
R: reel
M: 4/4
L: 1/8
K: Ador
|: EAAB cgcd | e2 ed eAAf | g2 gf gBBA | GA (3BAG cABA |EAAB cgcd | e2 ed eAAf | g2 gf gBBA |1 GA (3BAG A3 G :|2 GA (3BAG A3 g || a2 ab aged | eA (3AAA eAfA | g2 gf gBBA | GA (3BAG cABA || ^cA (3AAA cAdA | eA (3AAA eAfA | g2 gf gBBA | GA (3BAG A3 |a2 ab aged | eA (3AAA eAfA | g2 gf gBBA | GA (3BAG cABA |EAAB cgcd | e2 ed eAAf | g2 gf gBBA |1 GA (3BAG A3 A3 G ||


Tune 1688	Setting 15115

